X:957
T:Poll Ha'penny
R:Long Dance
O:Ireland
B:Krassen O'Neill's p208 (as a hornpipe)
B:O'Neill's 1783
S:O'Neill's 1783
Z:Transcription:Robert Thorpe, chords:Mike Long
M:4/4
L:1/8
K:D
(fe)|\
"A"cAAB "G"AGEB|"A"cAGE "G"G2(cd)|"A"edce "D"dcAG|"A"A2AA A2:|\
(de)|\
"D"f2fd "A"e2ed|
"A"cdef "G"g2gb|"A"aged "D"cAdc|"A"A2 AA A2 (3(def)|\
"G"gfga gfef|gfga g2(ed)|
"A"eaab aged|eaab a2(ag)|\
"D"f2fd "A"e2ed|"A"cdef "G"g3b|"A"aged "G"cAdc|"A"A2AA A2|]
